src/media/instagram-icon.svg

<svg viewBox="0 0 106 106" xmlns="http://www.w3.org/2000/svg" xml:space="preserve" style="fill-rule:evenodd;clip-rule:evenodd;stroke-linejoin:round;stroke-miterlimit:2">
  <path d="M114 14.156C114 6.338 107.662 0 99.844 0H14.156C6.338 0 0 6.338 0 14.156v85.688C0 107.662 6.338 114 14.156 114h85.688c7.818 0 14.156-6.338 14.156-14.156V14.156Zm-12 9.02C102 17.004 96.996 12 90.824 12H23.176C17.004 12 12 17.004 12 23.176v67.648C12 96.996 17.004 102 23.176 102h67.648C96.996 102 102 96.996 102 90.824V23.176Z" style="fill:#635091" transform="translate(8 8) scale(.78948)"/>
  <path d="M93 31.281C93 25.603 88.397 21 82.719 21H31.281C25.603 21 21 25.603 21 31.281v51.438C21 88.397 25.603 93 31.281 93h51.438C88.397 93 93 88.397 93 82.719V31.281Z" style="fill:#392b55" transform="translate(.692 .692) scale(.91768)"/>
  <path d="M87 37.281C87 31.603 82.397 27 76.719 27H37.281C31.603 27 27 31.603 27 37.281v39.438C27 82.397 31.603 87 37.281 87h39.438C82.397 87 87 82.397 87 76.719V37.281Zm-5.722 5.722c0-5.678-4.603-10.281-10.281-10.281H43.003c-5.678 0-10.281 4.603-10.281 10.281v27.994c0 5.678 4.603 10.281 10.281 10.281h27.994c5.678 0 10.281-4.603 10.281-10.281V43.003ZM57 41.538c8.534 0 15.462 6.928 15.462 15.462 0 8.534-6.928 15.462-15.462 15.462-8.534 0-15.462-6.928-15.462-15.462 0-8.534 6.928-15.462 15.462-15.462Zm0 6.03c5.206 0 9.432 4.226 9.432 9.432S62.206 66.432 57 66.432 47.568 62.206 47.568 57s4.226-9.432 9.432-9.432Zm15.462-10.53a3.48 3.48 0 0 1 3.462 3.462 3.48 3.48 0 0 1-3.462 3.462A3.48 3.48 0 0 1 69 40.5a3.48 3.48 0 0 1 3.462-3.462Z" style="fill:#e5ad66" transform="translate(1.885 1.885) scale(.89676)"/>
</svg>

<?xml version="1.0" encoding="UTF-8" standalone="no"?>
<!DOCTYPE svg PUBLIC "-//W3C//DTD SVG 1.1//EN" "http://www.w3.org/Graphics/SVG/1.1/DTD/svg11.dtd">
<svg width="100%" height="100%" viewBox="0 0 106 106" version="1.1" xmlns="http://www.w3.org/2000/svg" xmlns:xlink="http://www.w3.org/1999/xlink" xml:space="preserve" xmlns:serif="http://www.serif.com/" style="fill-rule:evenodd;clip-rule:evenodd;stroke-linejoin:round;stroke-miterlimit:2;">
    <g id="ICONS" transform="matrix(1.15385,0,0,1.15385,1.07692,1.07692)">
        <g transform="matrix(0.684211,0,0,0.684211,6,6)">
            <path d="M114,14.156C114,6.338 107.662,0 99.844,0L14.156,0C6.338,0 0,6.338 0,14.156L0,99.844C0,107.662 6.338,114 14.156,114L99.844,114C107.662,114 114,107.662 114,99.844L114,14.156ZM102,23.176C102,17.004 96.996,12 90.824,12L23.176,12C17.004,12 12,17.004 12,23.176L12,90.824C12,96.996 17.004,102 23.176,102L90.824,102C96.996,102 102,96.996 102,90.824L102,23.176Z" style="fill:#635091;"/>
        </g>
        <g transform="matrix(0.795322,0,0,0.795322,-0.333333,-0.333333)">
            <path d="M93,31.281C93,25.603 88.397,21 82.719,21L31.281,21C25.603,21 21,25.603 21,31.281L21,82.719C21,88.397 25.603,93 31.281,93L82.719,93C88.397,93 93,88.397 93,82.719L93,31.281Z" style="fill:#392b55;"/>
        </g>
        <g transform="matrix(0.777193,0,0,0.777193,0.7,0.7)">
            <path d="M87,37.281C87,31.603 82.397,27 76.719,27L37.281,27C31.603,27 27,31.603 27,37.281L27,76.719C27,82.397 31.603,87 37.281,87L76.719,87C82.397,87 87,82.397 87,76.719L87,37.281ZM81.278,43.003C81.278,37.325 76.675,32.722 70.997,32.722L43.003,32.722C37.325,32.722 32.722,37.325 32.722,43.003L32.722,70.997C32.722,76.675 37.325,81.278 43.003,81.278L70.997,81.278C76.675,81.278 81.278,76.675 81.278,70.997L81.278,43.003ZM57,41.538C65.534,41.538 72.462,48.466 72.462,57C72.462,65.534 65.534,72.462 57,72.462C48.466,72.462 41.538,65.534 41.538,57C41.538,48.466 48.466,41.538 57,41.538ZM57,47.568C62.206,47.568 66.432,51.794 66.432,57C66.432,62.206 62.206,66.432 57,66.432C51.794,66.432 47.568,62.206 47.568,57C47.568,51.794 51.794,47.568 57,47.568ZM72.462,37.038C74.361,37.039 75.923,38.601 75.924,40.5C75.923,42.399 74.361,43.961 72.462,43.962C70.563,43.961 69.001,42.399 69,40.5C69.001,38.601 70.563,37.039 72.462,37.038Z" style="fill:#e5ad66;"/>
        </g>
    </g>
</svg>
